X: 32
T:St. Bruno
% Nottingham Music Database
S:Chris Dewhurst, via Phil Rowe
M:6/8
K:Dm
A|"Dm"d2e f2g|"Dm"a2d "G"def|"C"g2c cde|"Bb"fed "Am"c=BA|
"Dm"d2e "A7"f2g|"Dm"afd "Gm"b2g|"Dm"fed "A"ed^c|"Dm"d3 -d2::
a|"Dm"add "Gm"bdd|"Dm"add fef|"Gm"g2b d'c'b|"Dm"a3 d3|
"Gm"g2a bag|"Dm"afd A2f|"A"e^cA f2e|"Dm"d3 -d2:|<end>
<start>
